**kern	**kern	**dynam
*part1	*part1	*part1
*staff2	*staff1	*
*I"Piano	*	*
*clefF4	*clefG2	*
*k[b-]	*k[b-]	*
*M3/4	*M3/4	*
=1	=1	=1
!	!	!LO:DY:a
(4FF	(4A 4c 4f	p
=!|:	=!|:	=!|:
!	!LO:TX:b:i:t=leggiero	!
8F'L)	8B-'L) 8d 8g	.
8F'J	8B-'J 8d 8g	.
4F'	4B-' 4d 4g	.
(4F 4B-	(4e 4g 4dd	.
=	=	=
8F'L) 8A	8f'L) 8a 8cc	.
8F'J 8A	8f'J 8a 8cc	.
4F' 4A	4f' 4a 4cc	.
(4FF	(4A 4c 4f	.
=	=	=
8F'L)	8B-'L) 8d 8g	.
8F'J	8B-'J 8d 8g	.
4F'	4B-' 4d 4g	.
(4F 4B-	(4e 4g 4dd	.
=	=	=
8F'L) 8A	8f'L) 8a 8cc	.
8F'J 8A	8f'J 8a 8cc	.
4F' 4A	4f' 4a 4cc	.
(4FF	(4A 4c	.
=	=	=
8DD'L) 8D	8A'L) 8d 8f	.
8D'J	8A'J 8d 8f	.
4D'	4A' 4d 4f	.
(4D 4d	(4a 4dd 4ff	.
=	=	=
8G'L) 8g	8bn'L) 8dd	.
8g'J	8b'J 8dd	.
4g'	4b' 4dd	.
(4GG	(4Bn 4d	.
=	=	=
*-	*-	*-
!!!system-decoration: {(s1,s2)}
